X:199
T:Planxty O'Rourke (2nd Setting) 
C:O'Carolan
B:CWTO.145
F:file ID carolan/199prk2
Z:Gilb/Brennan/Black
Q:100
M:3/4
L:1/8
K:Em 
B^A Bc B2|e^d ef g2|B2A2G2|AB cB A2|
"5"d2B2^G2|A2G2E2|D^CDE G2|A^GAB dB/c/|
"9"AG ED CA,|B,2 E2 ^D2|"11"E4||
FA|"12"G3 AG2|GE DE G2|[B2B,2] D2 D2|D4 E^G|
"16"A3 BA^G|A2 B2 ^d2|e2 G2 FA|G4 B>d|
"20"e3 fe^d|e2 f2 g2|g2 B2 B2|B3 cBA|
"24"GE DE G2|DC B,C D2|C>B, C>A, B,>G,|A,4 B,C|
"28"D3 ED^C|D2 E2 G2|A3 BA^G|A2 B2 d2|
"32"g2 f2 e2|ed cB AB|G2 E2 ^D2|E6|]
P:alternate measures
"9-10 alt" ag ed cA|B2 E2 D2|
"25-27 alt"dc Bc d2|c>B c>A B>G|A4 Bc|

